X:112
T:Liverpoole
M:2/4
L:1/16
K:D
A2|FDFA dfaf|gefd dcBA|GBGB FAFA|EFGA GFED|FDFA dfaf|
gefd dcBA|afdf gecA|d2d2d2::A2|dfdf cece|Bcde dcBA|
GBGB FAFA|EFGA GFED|FDFA dfaf|gefd dcBA|afdf gecA|d2f2d2:|
